X: 1
T: Kind Robin Lo'es Me
O: SRSNH 8.12
R: air
S: printed copy in Concord Slow Scottish Session collection
Z: 2015 John Chambers <jc:trillian.mit.edu>
M: C
L: 1/8
K: G
DE "A"|\
"G"G2G2 "G7"G3B | "C"ABAG "D7"E2DE | "G"G2G2 "Em"G3B | "C"AGAc "D7"d3e |
"G"G2G2 "Em"g3d | "Am7"cBAG "D7"E2DE | "Em"G2G2 "C"e2dB | "D7"d4 "G"G2 |]
z2 "B"|\
"G"d2ed "G7"B2gB | "C"cBAG "D7"E3D | "G"d2ed "Em"cBAG | "C"A2B>d "D7"e3e |
"G"d2ef "Em"g3B | "Am7"cBAG "D7"E2DE | "Em"G2G2 "C"e2dB | "D7"d4 "G"G2 |]
